X: 31160
T: Paddy Fahey's
R: reel
M: 4/4
K: Gmajor
GABc dB B2|dGBd gfdc|Bcde =f2eg|^faga fdcA|
BG G2 D2GB|dGBd c2Bc|dg g2 dgag|1 fdcA G3D:|2 fdcA G2Bd||
|:g2 dc BdGB|DGBd gfde|=f2eg ^faga|fdAd fgaf|
g2dc BdGB|DGBd gfde|=f2eg ^faga|fdcA G4:|

